X: 51
T: the London Camp
%R: jig
B: Stewart "A Select Collection of Airs, Jigs, Marches and Reels", ca.1784, p.23 #51
F: http://imslp.org/wiki/A_Select_Collection_of_Airs,_Jigs,_Marches_and_Reels_%28Various%29
Z: 2017 John Chambers <jc:trillian.mit.edu>
M: 6/8
L: 1/8
K: D
A |\
def gea | fdf ecA |\
def gea | fdd d2 ::\
f/g/ |\
aaf gge | ffd ecA |
fga agf | eee e2f/g/ |\
aaf gge | ffd ecA |\
def gea | fdd d2 :|
